icons/Xenlism-Storm/Apps/distributor-logo-mint.svg

<?xml version="1.0" encoding="UTF-8" standalone="no"?>
<svg
   xmlns:dc="http://purl.org/dc/elements/1.1/"
   xmlns:cc="http://creativecommons.org/ns#"
   xmlns:rdf="http://www.w3.org/1999/02/22-rdf-syntax-ns#"
   xmlns:svg="http://www.w3.org/2000/svg"
   xmlns="http://www.w3.org/2000/svg"
   xml:space="preserve"
   style="enable-background:new 0 0 512 512;"
   viewBox="0 0 512 512"
   y="0px"
   x="0px"
   id="Layer_2"
   version="1.1"><metadata
     id="metadata53"><rdf:RDF><cc:Work
         rdf:about=""><dc:format>image/svg+xml</dc:format><dc:type
           rdf:resource="http://purl.org/dc/dcmitype/StillImage" /><dc:title></dc:title></cc:Work></rdf:RDF></metadata><defs
     id="defs51" /><g
     id="g3"><g
       id="g5"
       style="opacity:0.4;enable-background:new    ;"><radialGradient
         gradientUnits="userSpaceOnUse"
         gradientTransform="matrix(2 0 0 -2 254.5 1284.5)"
         r="118.8609"
         cy="514.25"
         cx="0.7625"
         id="SVGID_1_"><stop
           id="stop8"
           style="stop-color:#010101"
           offset="0" /><stop
           id="stop10"
           style="stop-color:#010101;stop-opacity:0.1413"
           offset="0.8587" /><stop
           id="stop12"
           style="stop-color:#010101;stop-opacity:0"
           offset="1" /></radialGradient><path
         id="path14"
         d="M449,449c-59.7,59.7-326.2,59.7-385.9,0S3.4,122.7,63,63s326.3-59.6,386,0    S508.6,389.3,449,449z"
         style="fill:url(#SVGID_1_);" /></g><g
       id="g16"
       style="opacity:0.4;enable-background:new    ;"><radialGradient
         gradientUnits="userSpaceOnUse"
         gradientTransform="matrix(1.4138 -1.4146 -0.979 -0.9784 758.1053 762.0507)"
         r="133.1551"
         cy="515.0576"
         cx="1.5285"
         id="SVGID_2_"><stop
           id="stop19"
           style="stop-color:#010101"
           offset="0" /><stop
           id="stop21"
           style="stop-color:#010101;stop-opacity:0.1413"
           offset="0.8587" /><stop
           id="stop23"
           style="stop-color:#010101;stop-opacity:0"
           offset="1" /></radialGradient><path
         id="path25"
         d="M449,449c-59.7,59.7-326.2,59.7-385.9,0S3.4,122.7,63,63s326.3-59.6,386,0    S508.6,389.3,449,449z"
         style="fill:url(#SVGID_2_);" /></g><g
       id="g27"
       style="opacity:0.4;enable-background:new    ;"><radialGradient
         gradientUnits="userSpaceOnUse"
         gradientTransform="matrix(-1.4138 -1.4146 0.979 -0.9784 -243.1053 762.0507)"
         r="133.1784"
         cy="513.4733"
         cx="2.5888"
         id="SVGID_3_"><stop
           id="stop30"
           style="stop-color:#010101"
           offset="0" /><stop
           id="stop32"
           style="stop-color:#010101;stop-opacity:0.1413"
           offset="0.8587" /><stop
           id="stop34"
           style="stop-color:#010101;stop-opacity:0"
           offset="1" /></radialGradient><path
         id="path36"
         d="M63,449c59.7,59.7,326.2,59.7,385.9,0s59.7-326.2,0-385.9S122.7,3.4,63,63S3.4,389.3,63,449    z"
         style="fill:url(#SVGID_3_);" /></g></g><radialGradient
     gradientUnits="userSpaceOnUse"
     r="305.592"
     cy="154"
     cx="254"
     id="SVGID_4_"><stop
       id="stop39"
       style="stop-color:#C7F994"
       offset="0" /><stop
       id="stop41"
       style="stop-color:#87CF3E"
       offset="1" /></radialGradient><path
     id="path43"
     d="M433.3,433.3c-70.3,70.3-284.3,70.3-354.6,0S8.4,149,78.7,78.7s284.3-70.3,354.6,0  S503.6,363,433.3,433.3z"
     style="fill:url(#SVGID_4_);" /><g
     id="g45"><path
       d="   M269.8,203.8c-8.3,0-15.8,3.1-21.7,9.1c-6,6-9.1,13.5-9.1,22v42.8h19.4v-42.8c0-3.2,1.1-5.8,3.4-8.1c2.3-2.3,4.8-3.4,8-3.4   c3.3,0,5.7,1.1,8,3.4c2.3,2.3,3.4,4.9,3.4,8.1v42.8h19.4v-42.8c0-3.2,1.1-5.8,3.4-8.1c2.3-2.4,4.8-3.4,8-3.4c3.2,0,5.7,1.1,8,3.4   c2.3,2.3,3.4,4.9,3.4,8.1l0.1,50c0,10.7-10.2,19.7-23.2,19.7l-62.6-0.2c-10.1,0-18.7-9.8-18.7-22.4v-94.2h-18.4v97.9   c0,10.4,3.8,19.5,11.2,26.9c6.3,6.2,13.9,10.3,22.5,11.2l69.8,0c10.7,0,20.1-4,27.7-11.7h0c6.5-6.6,10.2-14.6,11.2-23.5l-0.1-53.5   c0-8.5-3.1-16-9.1-22c-6-6-13.4-9.1-21.7-9.1c-8.2,0-15.4,3-21.2,8.6C285.1,206.8,278,203.8,269.8,203.8L269.8,203.8z"
       style="fill:#FFFFFF;"
       id="_x3C_Path_x3E__1_" /><path
       d="   M247.8,362.4c-44.2,0-82.5-33.5-82.5-77.6l0-53.6v-13.7h-28v-68.1l118.1,0.6l36.9,0.1c44.2,0,82.5,33.4,82.5,77.6v134.7H247.8   L247.8,362.4L247.8,362.4z M356.7,326.3c0-29.3,0-98.5,0-98.5c0-32.9-28.9-59.6-64.5-59.6h-37v-0.1l-100-0.4v32c0,0,4,0,11.2,0   c7.6,0,16.8,7.1,16.8,17.6l0.1,67.5c0,32.9,28.9,59.6,64.5,59.6h87.9C346.9,344.4,356.7,337.3,356.7,326.3L356.7,326.3z"
       style="fill:#FFFFFF;"
       id="_x3C_Path_x3E_" /></g></svg>

<?xml version="1.0" encoding="UTF-8" standalone="no"?>
<!DOCTYPE svg PUBLIC "-//W3C//DTD SVG 1.1//EN" "http://www.w3.org/Graphics/SVG/1.1/DTD/svg11.dtd">
<svg width="100%" height="100%" viewBox="0 0 512 512" version="1.1" xmlns="http://www.w3.org/2000/svg" xmlns:xlink="http://www.w3.org/1999/xlink" xml:space="preserve" xmlns:serif="http://www.serif.com/" style="fill-rule:evenodd;clip-rule:evenodd;stroke-linejoin:round;stroke-miterlimit:1.41421;">
    <g transform="matrix(1.47741,0,0,1.47741,-90.043,-57.334)">
        <circle cx="234.223" cy="212.084" r="155.678" style="fill:rgb(162,225,98);"/>
    </g>
    <g id="g45">
        <path id="_x3C_Path_x3E__1_" d="M269.8,203.8C261.5,203.8 254,206.9 248.1,212.9C242.1,218.9 239,226.4 239,234.9L239,277.7L258.4,277.7L258.4,234.9C258.4,231.7 259.5,229.1 261.8,226.8C264.1,224.5 266.6,223.4 269.8,223.4C273.1,223.4 275.5,224.5 277.8,226.8C280.1,229.1 281.2,231.7 281.2,234.9L281.2,277.7L300.6,277.7L300.6,234.9C300.6,231.7 301.7,229.1 304,226.8C306.3,224.4 308.8,223.4 312,223.4C315.2,223.4 317.7,224.5 320,226.8C322.3,229.1 323.4,231.7 323.4,234.9L323.5,284.9C323.5,295.6 313.3,304.6 300.3,304.6L237.7,304.4C227.6,304.4 219,294.6 219,282L219,187.8L200.6,187.8L200.6,285.7C200.6,296.1 204.4,305.2 211.8,312.6C218.1,318.8 225.7,322.9 234.3,323.8L304.1,323.8C314.8,323.8 324.2,319.8 331.8,312.1C338.3,305.5 342,297.5 343,288.6L342.9,235.1C342.9,226.6 339.8,219.1 333.8,213.1C327.8,207.1 320.4,204 312.1,204C303.9,204 296.7,207 290.9,212.6C285.1,206.8 278,203.8 269.8,203.8Z" style="fill:white;fill-rule:nonzero;"/>
        <path id="_x3C_Path_x3E_" d="M247.8,362.4C203.6,362.4 165.3,328.9 165.3,284.8L165.3,231.2L165.3,217.5L137.3,217.5L137.3,149.4L255.4,150L292.3,150.1C336.5,150.1 374.8,183.5 374.8,227.7L374.8,362.4L247.8,362.4ZM356.7,326.3C356.7,297 356.7,227.8 356.7,227.8C356.7,194.9 327.8,168.2 292.2,168.2L255.2,168.2L255.2,168.1L155.2,167.7L155.2,199.7C155.2,199.7 159.2,199.7 166.4,199.7C174,199.7 183.2,206.8 183.2,217.3L183.3,284.8C183.3,317.7 212.2,344.4 247.8,344.4L335.7,344.4C346.9,344.4 356.7,337.3 356.7,326.3Z" style="fill:white;fill-rule:nonzero;"/>
    </g>
</svg>
